X: 770
T: Fitneler Gizlemiş Mahmur Gözüne
C: Mahmud Celâleddin Paşa
O: Turkey
F: http://compmusic.upf.edu/node/140
N: rast--sarki--yuruksemai--fitneler_gizlemis--mahmud_celaleddin_pasa
N: makam= rast
N: form= sarki
N: usul= yuruksemai = 6/8
M: 6/8
L: 1/16
K: C _1/4B ^f  
Q: 1/4=120
%%MIDI tuningsystem comma53
G3/2F/GA Bcde =fedc  | =f3/2e/dc BAGe d4  | 
w:  ARANAĞME  |   | 
e=fag fef3/2e/ dedc  | =f3/2e/de dcB^A B4  | 
w:   |   | 
c3/2d/e2 e2B3/2c/ d2d2  | A3/2B/c3/2B/ B3/2A/GB A4  | \
w:   |   | 
DGFG ABce dcBA  | 
w:   | 
AGFG AGG4z2  | G3/2F/GA Bcde =fedc  | \
w:   |  ARANAĞME  | 
=f3/2e/dc BAGe d4  | 
w:   | 
e=fag fef3/2e/ dedc  | =f3/2e/de dcB^A B4  | 
w:   |   | 
c3/2d/e2 e2B3/2c/ d2d2  | A3/2B/c3/2B/ B3/2A/GB A4  | \
w:   |   | 
DGFG ABce dcBA  | 
w:   | 
AGFG AGG4z2  | G4 A2B2 c2dc  | B3A AGG6  | \
w:   |  Fit ne ler  |  giz *  le *  miş  | 
cBA2 B2c2 d2cB  | 
w:  mah *  *  *  mur  | 
c2d2 eddc BAG2  | G4 A2B2 c2dc  | B3A AGG6  | \
w:  gö *  zü *  ne  |  Fit ne ler  |  giz *  le *  miş  | 
cBA2 B2c2 d2cB  | 
w:  mah *  *  *  mur  | 
c2d2 edd4z2  | d4 g2ag =fedc  | B3A GBA4z2  | \
w:  gö *  zü *  ne  |  Naz la nır  |  sev *  di *  ğim  | 
DGFG ABce dcBA  | 
w:  bak *  *  *  *  *  sam  | 
AGFG AGGA Bcd2  | d4 g2ag =fedc  | B3A GBA4z2  | 
w:  yü *  *  *  zü *  ne  |  Naz la nır  |  sev *  di *  ğim  | 
DGFG ABce dcBA  | AGFG AGG4g2  | g2=f2 e2d2 ^c2B2  | 
w:  bak *  *  *  *  *  sam  |  yü *  *  *  zü *  ne SAZ  |  Gö *  nül al  | 
^A2B2 cBB4z2  | ^cdcd cBcd e=fed  | efga bag4z2  | 
w:  da *  nı *  yor  |  tat *  *  *  *  *  lı  |  sö *  *  *  zü *  ne  | 
g4 a2a4g2  | fgf2 g2ag =fed2  | d^c=B2 c2d2 e2=f2  | \
w:  Gö nül al  |  da *  *  nı yor  |  tat *  *  *  lı  | 
ed^cd edd4z2  | 
w:  sö *  *  *  zü *  ne  | 
d4 g2ag =fedc  | B3A GBA4z2  | DGFG ABce dcBA  | 
w:  Naz la nır  |  sev *  di *  ğim  |  bak *  *  *  *  *  sam  | 
AGFG AGGA Bcd2  | d4 g2ag =fedc  | B3A GBA4z2  | 
w:  yü *  *  *  zü *  ne  |  Naz la nır  |  sev *  di *  ğim  | 
DGFG ABce dcBA  | AGFG AGG6  | |


